storage/app/icons/phosphoricons/duotone/currency-eur-duotone.svg

<svg xmlns="http://www.w3.org/2000/svg" fill="currentColor" viewBox="0 0 256 256"><path d="M184 58.33v139.34A72 72 0 0 1 64 144v-32a72 72 0 0 1 120-53.67" opacity=".2"/><path d="M190 192.33a8 8 0 0 1-.63 11.3A80 80 0 0 1 56.4 152H40a8 8 0 0 1 0-16h16v-16H40a8 8 0 0 1 0-16h16.4a80 80 0 0 1 132.94-51.63 8 8 0 0 1-10.68 11.93A64 64 0 0 0 72.52 104H136a8 8 0 0 1 0 16H72v16h48a8 8 0 0 1 0 16H72.52a64 64 0 0 0 106.14 39.71 8 8 0 0 1 11.34.62"/></svg>

<svg xmlns="http://www.w3.org/2000/svg" viewBox="0 0 256 256" fill="currentColor"><path d="M184,58.33V197.67A72,72,0,0,1,64,144V112A72,72,0,0,1,184,58.33Z" opacity="0.2"/><path d="M190,192.33a8,8,0,0,1-.63,11.3A80,80,0,0,1,56.4,152H40a8,8,0,0,1,0-16H56V120H40a8,8,0,0,1,0-16H56.4A80,80,0,0,1,189.34,52.37,8,8,0,0,1,178.66,64.3,64,64,0,0,0,72.52,104H136a8,8,0,0,1,0,16H72v16h48a8,8,0,0,1,0,16H72.52a64,64,0,0,0,106.14,39.71A8,8,0,0,1,190,192.33Z"/></svg>
